assets/robonomics/logo.svg

<svg width="64" height="64" viewBox="0 0 64 64" fill="none" xmlns="http://www.w3.org/2000/svg">
<path d="M32 64C49.6731 64 64 49.6731 64 32C64 14.3269 49.6731 0 32 0C14.3269 0 0 14.3269 0 32C0 49.6731 14.3269 64 32 64Z" fill="white"/>
<path d="M32.2604 13.0083L13.5287 44.7481H50.4718L32.2604 13.0083Z" stroke="#03A5ED" stroke-width="0.653456" stroke-miterlimit="10"/>
<path d="M32.2605 15.61C33.6973 15.61 34.8621 14.4452 34.8621 13.0084C34.8621 11.5715 33.6973 10.4067 32.2605 10.4067C30.8237 10.4067 29.6589 11.5715 29.6589 13.0084C29.6589 14.4452 30.8237 15.61 32.2605 15.61Z" fill="#03A5ED"/>
<path d="M50.2116 47.3497C51.6484 47.3497 52.8132 46.1849 52.8132 44.7481C52.8132 43.3113 51.6484 42.1465 50.2116 42.1465C48.7747 42.1465 47.6099 43.3113 47.6099 44.7481C47.6099 46.1849 48.7747 47.3497 50.2116 47.3497Z" fill="#03A5ED"/>
<path d="M13.7888 47.3497C15.2256 47.3497 16.3904 46.1849 16.3904 44.7481C16.3904 43.3113 15.2256 42.1465 13.7888 42.1465C12.3519 42.1465 11.1871 43.3113 11.1871 44.7481C11.1871 46.1849 12.3519 47.3497 13.7888 47.3497Z" fill="#03A5ED"/>
<path d="M32.2601 26.0166V34.602L39.2845 38.2442L32.2601 26.0166Z" fill="#B5C0F1"/>
<path d="M32.2603 34.6021L25.2359 38.2443H39.2847L32.2603 34.6021Z" fill="#535974"/>
<path d="M32.2603 26.0166L25.2359 38.2442L32.2603 34.602V26.0166Z" fill="#03A5ED"/>
</svg>

<svg width="64" height="64" fill="none" xmlns="http://www.w3.org/2000/svg">
    <path fill="#282A39" d="M0 0h64v64H0z"/>
    <path d="M32.26 13.008L13.53 44.748h36.943L32.26 13.008z" stroke="#03A5ED" stroke-width=".653" stroke-miterlimit="10"/>
    <path d="M32.26 15.61a2.602 2.602 0 100-5.203 2.602 2.602 0 000 5.203z" fill="#03A5ED"/>
    <path d="M50.212 47.35a2.602 2.602 0 100-5.204 2.602 2.602 0 000 5.204z" fill="#03A5ED"/>
    <path d="M13.789 47.35a2.602 2.602 0 100-5.204 2.602 2.602 0 000 5.204z" fill="#03A5ED"/>
    <path d="M32.26 26.017v8.585l7.025 3.642-7.025-12.227z" fill="#B5C0F1"/>
    <path d="M32.26 34.602l-7.024 3.642h14.049l-7.025-3.642z" fill="#535974"/>
    <path d="M32.26 26.017l-7.024 12.227 7.024-3.642v-8.585z" fill="#03A5ED"/>
</svg>
